Origami/64x64/apps/xmoto.svg

<svg xmlns="http://www.w3.org/2000/svg" width="64" height="64" version="1.1" viewBox="0 0 64 64">
 <path style="opacity:0.2" d="m 34.364588,4.9999999 c -17.192946,0 -26.3850638,12.2936931 -28.045994,25.7087641 -1.1435824,9.236534 0.9545236,17.882654 3.696486,23.647848 4.014798,7.376272 5.07853,7.800644 11.37886,5.173566 12.802906,-5.342364 25.550034,-11.508582 35.28173,-16.658526 3.72898,-1.97335 3.505474,-9.921674 3.12488,-14.53893 C 58.851446,16.818485 51.557532,4.9999999 34.364588,4.9999999 Z"/>
 <path style="fill:#f4b932" d="M 34.364588,4 C 17.171642,4 7.9795242,16.293693 6.318594,29.708764 c -1.1435824,9.236534 0.9545236,17.882654 3.696486,23.647848 4.014798,7.376272 5.07853,7.800644 11.37886,5.173566 12.802906,-5.342364 25.550034,-11.508582 35.28173,-16.658526 3.72898,-1.97335 3.505474,-9.921674 3.12488,-14.53893 C 58.851446,15.818485 51.557532,4 34.364588,4 Z"/>
 <path style="opacity:0.2;fill:#ffffff" d="M 34.363281 4 C 17.170334 4 7.9812427 16.291959 6.3203125 29.707031 C 6.0806398 31.64283 5.9887923 33.549425 6.0097656 35.412109 C 6.0279702 33.868421 6.1233779 32.297641 6.3203125 30.707031 C 7.9812427 17.291959 17.170334 5 34.363281 5 C 51.556225 5 58.851677 16.817793 59.800781 28.332031 C 59.903582 29.579141 59.963363 31.08996 59.964844 32.640625 C 59.96611 32.69076 59.971495 32.731023 59.972656 32.78125 C 60.025276 30.82517 59.929021 28.887749 59.800781 27.332031 C 58.851677 15.817793 51.556225 4 34.363281 4 z"/>
 <path style="fill:#444444" d="m 30.20053,21.201216 c -0.358246,0.0108 -0.710876,0.09438 -1.037626,0.245792 -4.219368,1.662348 -6.485906,3.748982 -11.336656,4.361682 -2.840307,0.358758 -6.915121,0.430706 -9.7505502,0.08572 C 6.446282,25.673454 4.9999652,26.977388 5,28.66731 v 11.736666 c 4.684e-4,1.57703 1.2681958,2.84182 2.801239,2.794754 4.398049,-0.33309 8.933862,-0.875836 13.049339,-2.306394 0,0 12.149422,-4.012114 12.149422,-16.894544 5e-4,-1.577006 -1.266418,-2.842612 -2.79947,-2.796574 z"/>
 <circle style="opacity:0.2" cx="29.5" cy="26.5" r="2.5"/>
 <circle style="fill:#ffffff" cx="29.5" cy="25.5" r="2.5"/>
</svg>

<svg width="64" height="64" version="1.1" viewBox="0 0 64 64" xmlns="http://www.w3.org/2000/svg">
 <path d="m34.364588 4.9999999c-17.192946 0-26.385064 12.293693-28.045994 25.708764-1.1435824 9.236534 0.9545236 17.882654 3.696486 23.647848 4.014798 7.376272 5.07853 7.800644 11.37886 5.173566 12.802906-5.342364 25.550034-11.508582 35.28173-16.658526 3.72898-1.97335 3.505474-9.921674 3.12488-14.53893-0.949104-11.514237-8.243018-23.332722-25.435962-23.332722z" style="opacity:.2"/>
 <path d="M 34.364588,4 C 17.171642,4 7.9795242,16.293693 6.318594,29.708764 c -1.1435824,9.236534 0.9545236,17.882654 3.696486,23.647848 4.014798,7.376272 5.07853,7.800644 11.37886,5.173566 12.802906,-5.342364 25.550034,-11.508582 35.28173,-16.658526 3.72898,-1.97335 3.505474,-9.921674 3.12488,-14.53893 C 58.851446,15.818485 51.557532,4 34.364588,4 Z" style="fill:#f4b932"/>
 <path d="m34.363281 4c-17.192947 0-26.382038 12.291959-28.042968 25.707031-0.2396727 1.935799-0.3315202 3.842394-0.3105469 5.705078 0.0182046-1.543688 0.1136123-3.114468 0.3105469-4.705078 1.6609302-13.415072 10.850022-25.707031 28.042968-25.707031 17.192944 0 24.488396 11.817793 25.4375 23.332031 0.102801 1.24711 0.162582 2.757929 0.164063 4.308594 0.001266 0.050135 0.006651 0.090398 0.007812 0.140625 0.05262-1.95608-0.043635-3.893501-0.171875-5.449219-0.949104-11.514238-8.244556-23.332031-25.4375-23.332031z" style="fill:#ffffff;opacity:.2"/>
 <path d="m30.20053 21.201216c-0.358246 0.0108-0.710876 0.09438-1.037626 0.245792-4.219368 1.662348-6.485906 3.748982-11.336656 4.361682-2.840307 0.358758-6.915121 0.430706-9.7505502 0.08572-1.6294158-0.220956-3.0757326 1.082978-3.0756978 2.7729v11.736666c4.684e-4 1.57703 1.2681958 2.84182 2.801239 2.794754 4.398049-0.33309 8.933862-0.875836 13.049339-2.306394 0 0 12.149422-4.012114 12.149422-16.894544 5e-4 -1.577006-1.266418-2.842612-2.79947-2.796574z" style="fill:#444444"/>
 <circle cx="29.5" cy="26.5" r="2.5" style="opacity:.2"/>
 <circle cx="29.5" cy="25.5" r="2.5" style="fill:#ffffff"/>
</svg>
